X: 130022
M: C
L: 1/8
K: D
(Ac) |\
vd2D2 D2fd | ue2E2 E2ef |\
gfed cdec | edcB ABce |\
d2D2 D2fd | ue2E2 E2ef |\
gfed cdec | d2d2d2 :|
|: (AG) |\
gfed cdec | d2d2d2 :|


